X:1
T:Fili quid fecisti
T:Fili quid fecisti
T:Tielman Susato
C:Tielman Susato
%%score [ 1 [ 2 3 ] 4 ]
L:1/8
Q:1/4=120
M:2/2
K:F
V:1 treble nm="Soprano" snm="S"
V:2 treble-8 nm="Tenor 1" snm="T 1"
V:3 treble-8 nm="Tenor 2" snm="T 2"
V:4 bass nm="Bass" snm="B"
V:1
 F6 E2 | D4 C4 | C4 D4 | E4 z4 | F8 | G4 A4 | c3 B AG F2- | F2 E2 D2 C2 | G4 z4 | C4 D4 | E8 | %11
w: Fi- *|* li,|Fi- li,|_|Fi-|li, _|[Fi- * * * *||li,]|Fi- *|li,|
 E6 E2 | D2 E2 F4 | D4 C4- | C4 z4 | z8 | F4 G4 | A4 A4- | A2 A2 G2 A2 | B2 G2 F4 | z2 A3 B c2- | %21
w: quid fe-|ci- sti no-|bis sic?|_||Fi- li,|_ quid|_ fe- ci- sti|no- bis sic?|Fi- li, quid|
 c2 B2 c4- | c2 BA B2 B2 | A4 z4 | z2 A4 A2 | G2 A2 B2 A2- | A2 GF G3 F | G2 A4 G2 | A4 A4 | %29
w: _ fe- ci-|* sti _ no- bis|sic?|Quid fe-|ci- sti no- *||* * bis|sic? Et|
 c6 BA | GA B4 AG | F2 A4 GF | E8 | z8 | z8 | c6 c2 | d2 c2 A2 c2- | c2 BA B2 A2- | A2 G2 A4- | %39
w: ec- * *|||ce,|||Pa- ter|tu- us et e-||* * go,|
 A8 | z8 | D4 A4- | A2 F2 G2 A2 | B2 G2 A4 | z2 D2 A2 F2 | G2 A2 B4 | G4 F2 A2 | c4 B2 A2- | %48
w: _||do- len-|* tes quae- re-|ba- mus te,|do- len- tes|quae- re- ba-|mus te, do-|len- tes quae-|
 A2 G2 F2 ED | E3 F G2 A2- | A2 G2 F2 G2- | GF F4 E2 | F8- | F8- | F8 ||"^SECUNDA PARS" z4 D4 | %56
w: * re- ba- * *|||* * * mus|te.|_||Et|
 F3 G A4- | A2 GF G2 A2 | B2 A4 GF | E4 C4 | z2 C2 F3 G | A6 GF | G2 A2 G4 | z2 F2 A3 B | c6 BA | %65
w: a- * *|* * * it ad|il- * * *|* los,|et a- *||* * it,|et a- *||
 B2 c2 d2 c2- | c2 BA B4 | G4 A4- | A4 z4 | z4 A4 | c2 c2 B2 G2 | A2 c4 BA | G2 FE FG A2- | %73
w: * * it ad|_ il- * *|* los:|_|quid|est quod me quae-|re- ba- * *||
 A2 G2 A4 | z4 z2 F2 | B2 B2 A2 F2 | G2 B3 A A2- | A2 G2 A4 | F4 G4- | G2 G2 G4 | AGAB c3 B | %81
w: * * tis?|Quid|est quod me quae-|re- ba- * *||tis? Ne-|* sci- e|ba- * * * * *|
 AG A2 F4 | z4 z2 A2 | d2 d2 c2 A2 | B2 d3 c BA | G2 c4 B2 | c2 G2 G2 G2 | c3 B AGFE | D2 C2 F4 | %89
w: * * * tis?|Quid|est quod me quae-|re- ba- * * *||tis, ne- sci- e-|ba- * * * * *|* * tis?|
 z4 z2 F2 | F2 G2 A2 A2 | B6 A2 | G2 F2 G2 G2 | A6 G2 | F2 E2 F4 | z4 A4 | A2 B2 c2 A2 | d6 c2 | %98
w: Qui-|a in his quae|Pa- *|* * tris me-||* i sunt,|qui-|a in his quae|Pa- *|
 B2 A3 G G2 | A4 F4 | G2 A2 B4 | A4 G2 B2- | B2 AG F2 A2 | A2 G2 E2 G2- | G2 FE D4 | z4 A4 | %106
w: * * * tris|me- i|sunt, quae- Pa-|* tris me-|* i _ sunt, o-|por- tet me es-|* * * se?|O-|
 A2 G2 E2 G2- | GF D2 F3 E/D/ | CDEF G2 F2- | F2 E2 F4- | F8- | F8- | F8- | F8 |] %114
w: por- tet me es-|||* * se?|_||||
V:2
 F8 | G4 A3 G |"^-natural" AB c4 B2 | c8 | d6 c2 | B4 A4 | z2 c4 d2- | d2 e2 f3 e | d3 c B2 A2 | %9
w: Fi-|||li,|Fi- *|* li,|Fi- *|||
 G4 F2 F2 | G4 A4 | A3 A G2 A2 | B2 G2 F4 | z8 | c4 d4 | e2 e4 e2 | d4 e4 | f6 ed | c2 d2 e2 f2 | %19
w: * li, Fi-|li, _|quid fe- ci- sti|no- bis sic?||Fi- *|li, quid fe-|ci- sti|no- * *|* * * bis|
 d4 z2 c2- | cd e2 f2 ef | g3 f ed e2 | c2 f4 e2 | f6 ed | e2 f2 c4 | z8 | z4 e4- | e2 e2 d2 e2 | %28
w: sic? Quid|_ _ _ fe- ci- *||sti no- *||* bis sic?||Quid|_ fe- ci- sti|
 f3 e/d/ c2 d2 | c4 z2 e2 | g3 f/e/ de f2- | fe/d/fe f2 F2 | G2 A2 G4 | F3 G A4 | z4 f4- | %35
w: no- * * * bis|sic? Et|ec- * * * * *||ce, et ec-|* * ce,|Pa-|
 f2 f2 g2 f2 | d2 f4 ed | e2 f2 B2 c2 | d3 c/d/ e4 | d2 f3 e c2 | d4 c4 | z4 c4 | f2 d2 e2 f2 | %43
w: * ter tu- us|et e- * *|* * go, et|e- * * *||* go,|do-|len- tes quae- re-|
 g4 f4 | d2 f2 e2 d2 | (3c3 d e2 d4 | z2 G2 c4- | c2 A2 B2 c2 | dc c4 B2 | c2 c3 B AG | %50
w: ba- *||mus _ _ te,|do- len-|* tes quae- re-|ba- * * mus|te, quae- re- ba- *|
 F2 G2 A2 B2 | c2 F2 c4- | c2 A2 B2 c2 | d4 B4 | A8 || z8 | z8 | z8 | z4 A4 | c3 d e4- | %60
w: * * * mus|te, do- len-|* tes quae- re-|ba- mus|te.||||Et|a- * *|
 e2 dc d3 e | f3 e/d/ c3 d | e2 f4 e2 | f4 F3 G | ABcd ef g2- | g2 f2 d2 f2- | fe c2 d4 | e4 f4 | %68
w: * * * * it|ad _ _ il- *||los, et _|_ _ _ _ _ _ a-|* it ad il-|||
 f4 z4 | d4 f2 f2 | e2 c2 d2 e2 | c2 c2 f2 f2 | e2 c2 d2 f2- | f2 ed c3 d | ef g3 f f2- | %75
w: los:|quid est quod|me quae- re- ba-|tis, quid est quod|me quae- re- be-|||
 f2 e2 f4 | d4 z4 | d6 d2 | d4 e3 d | ef g3 f ed | c2 f4 e2 | f4 z2 c2 | c2 c2 f4 | d4 z2 d2 | %84
w: |tis?|Ne- sci-|e ba- *|||tis,- ne-|sci- e- ba-|tis, ne-|
 d2 d2 g3 f | e2 dc d4 | c8 | z8 | z2 c2 c2 d2 | e2 e2 f4- | f2 e2 d2 c2 |"^-natural" d4 d2 e2- | %92
w: sci- e- ba- *||tis?||Qui- a in|his quae Pa-|* tris me- i|sunt, quae Pa-|
 e2 d2 c2 =B2 | A2 FG AB c2 | F2 c4 B2 | c4 z4 | z4 c4 | d4 d2 e2 | e2 f4 e2 | d2 c2 d3 c | %100
w: |tris me- * * * *|* * i|sunt,|qui-|a in his|quae Pa- *|* tris me- *|
 de f3 e/d/ e2 | f4 d4 | z2 d2 d2 c2 | A2 c4 BA | G4 z4 | d4 d2 c2 | A2 c3 B GA | B3 A FGAB | %108
w: |i sunt,|o- por- tet|me es- * *|se?|O- por- tet|me es- * * *||
 c3 B G2 c2 | c4 A4 | z2 d2 d2 c2 | A2 d4 c2- | c2 B2 c4- | c8 |] %114
w: * * se, o-|por- tet,|o- por- tet|me es- *|* * se?|_|
V:3
 z8 | z8 | F8 | G4 A4 | B6 A2 | G4 F2 A2- | A2 G2 A4 | z4 F4 | G3 A Bc d2- |"^-natural" dc c4 B2 | %10
w: ||Fi-|li, _|Fi- *||* * li,|Fi-|||
 c8- | c8 | z8 | F4 G4 | A4 A4- | A2 A2 G2 A2 | B4 G4 | F8 | z8 | z4 F3 G | AB c2 F2 c2 | %21
w: li,|_||Fi- li,|_ quid|_ fe- ci- sti|no- bis|sic?||Fi- *|* * * li, quid|
 d2 d2 c2 AG | AB c4 B2 | c8 | z4 c4- | c2 c2 B2 c2 | d4 c4- | c2 BA B2 c2 | F4 z4 | A4 c4- | %30
w: fe- ci- sti no- *|* * * bis|sic?|Quid|_ fe- ci- sti|no- *|* * * * bis|sic?|Et ec-|
 c2 BA Bc d2- | dc c4 B2 | c8 | z2 A3 BcA | B2 c2 d2 c2 | A2 c4 BA | B2 A2 FGAB | c2 d3 e f2- | %38
w: ||ce,|Pa- * * *|* ter tu- us|et e- * *|||
"^#" fe d4 c2 | d4 c3 B | A2 F2 G2 A2 | B4 A4- | A4 z4 | G4 d4- | d2 B2 c2 d2 | e2 c2 B3 c | %46
w: |go, et _|_ e- * *|* go,|_|do- len-|* tes quae- re-|ba- * * *|
 d2 c3 B AG | F4 z4 | z8 | G4 c4- | c2 B2 A2 G2 | A4 G4 | F2 c2 f3 e | d2 B2 d2 d2 | c8 || %55
w: * * * mus _|te,||do- len-|* tes quae- re-|ba- mus|te, do- len- tes|quae- re- ba- mur|te.|
 G4 B3 c | d6 cB | c2 d2 e2 d2- | d2 cB A4 | z8 | z4 z2 F2- | F2 A3 B c2- | c2 BA B2 c2 | %63
w: Et a- *||* it ad il-|* * * los,||et|_ a- * *||
 d2 c2 A4 | A4 c4 | B2 A2 G2 A2- | AB c4 B2 | c4 F4 | z2 A2 c2 c2 | A2 F2 A2 c2- | cB A2 G4 | %71
w: it ad il-|los, et|a- * * *|* * it ad|il- los:|quid est quod|me quae- re ba-||
 F3 G AGAB | c4 F4 | z8 | z2 G2 d2 d2 | B2 G2 A2 d2- | dcBA G2 A2 | B4 A4- | A4 z4 | z4 c4- | %80
w: |* tis?||Quid est quod|me quae- re- ba-||* tis?|_|Ne-|
 c2 c2 c4 | d3 c de f2- | f2 ed c3 B/A/ | GF G2 A2 F2 | G4 G2 G2 | c4 G4 | z8 | z4 F4 | %88
w: * sci- e-|ba- * * * *||* * * * tis,|ne- sci- e-|ba- tis?||Qui-|
 F3 G A2 A2 | c6 B2 | A2 G2 F4 | z2 B2 G2 c2- | cB A2 G4 | F2 c2 c4 | d2 e2 d2 f2- | f2 e2 d2 c2 | %96
w: a in his quae|Pa- tris|me- i sunt,|qui- a in|_ _ _ _|his quae Pa-|* * tris me-|* * * i|
 d4 z4 | z2 G4 c2 | G2 A2 B4 | A2 A2 B4- | B2 A2 G4 | F4 G4 | z8 | z4 z2 c2- | c2 c2 B2 G2 | %105
w: sunt,|quae Pa-|tris me- i|sunt, quae Pa-|* tris me-|i sunt,||o-|* por- tet me|
 B2 AG F4 | c4 c2 B2 | G2 B3 A FG | AB c3 B A2 | G4 F4- | F4 z2 A2 | A2 F3 G A2 | F2 B2 A4- | A8 |] %114
w: es- * * se?|O- por- tet|me es- * * *||* se?|_ O-|por- tet me es-|* * se?|_|
V:4
 z8 | z4 F,4- | F,2 E,2 D,4 | C,8 | B,,3 C, D,E, F,2- | F,2 E,2 F,4 | C,4 F,4 | G,4 A,4 | %8
w: |Fi-||li,|Fi- * * * *||* li,|Fi- *|
 B,3 A, G,2 F,2- | F,2 E,2 D,4 | C,8 | C,6 C,2 | B,,2 C,2 D,3 C, | D,E, F,4 E,2 | F,4 D,4 | C,8 | %16
w: ||li,|quid fe-|ci- sti no- *||* bis|sic?|
 z8 | z8 | z4 z2 F,2 | G,4 A,4 | A,6 A,2 | G,2 G,2 A,4- | A,2 G,F, G,2 G,2 | F,8 | z2 F,4 F,2 | %25
w: ||Fi-|li, _|quid fe-|ci- sti no-|* * * * bis|sic?|Quid fe-|
 E,2 F,2 G,2 F,2 | D,4 z4 | z8 | D,4 F,4- | F,2 E,D, C,3 D, | E,F, G,4 F,E, | F,E,D,C, D,4 | C,8 | %33
w: ci- sti no- bis|sic?||Et ec-||||ce,|
 F,6 F,2 | G,2 F,2 D,2 F,2- | F,2 E,D, E,2 F,2 | B,,2 F,2 A,4- | A,2 G,F, G,2 F,2 | B,4 A,4 | %39
w: Pa- ter|tu- us et e-||go, et e-||* go,|
 z2 D,2 F,4- | F,2 D,2 E,2 F,2 | G,4 F,4 | D,4 z4 | z8 | z8 | C,4 G,4- | G,2 E,2 F,3 G, | %47
w: do- len-|* tes quae- re-|ba- mus|te,|||do- len-|* tes quae- re-|
 A,2 F,2 G,2 F,2- | F,2 E,2 D,4 | C,8 | z8 | z4 C,4 | F,3 E, D,2 C,2 | B,,4 B,,4 | F,,8 || z8 | %56
w: ba- * * *|* * mus|te,||do-|len- tes quae- re-|ba- mus|te.||
 z8 | z8 | D,4 F,3 G, | A,6 G,F, | G,2 A,2 B,2 A,2- | A,G, F,4 E,D, | C,4 z2 C,2 | F,6 F,2 | %64
w: ||Et a- *||* * it ad|_ _ _ il- *|los, et|a- it|
 F,3 E,/D,/ C,D,E,F, | G,2 A,2 B,2 A,G, | F,2 A,2 G,4 | C,4 z2 D,2 | F,2 F,2 E,2 C,2 | %69
w: ad il- * * * * *|||los: quid|est quod me quae-|
 D,2 F,4 E,D, | C,2 F,4 E,2 | F,8 | z4 z2 F,2 | B,2 B,2 A,2 F,2 | G,2 B,3 A, A,G,/F,/ | %75
w: re- ba- * *||tis?|Quid|est quod me quae-|re- ba- * * * *|
 G,4 F,2 D,2 | G,2 G,4 F,2 | G,4 D,4- | D,4 C,4- | C,2 C,2 C,4 |"^-natural" F,4 C,4 | z4 F,4- | %82
w: |is, quae- re-|ba- tis?|_ Ne-|* sci- e-|ba- tis,|ne-|
 F,2 F,2 F,4 | B,4 F,4 | z8 | z8 | C,6 C,2 | C,4 D,3 C, | D,E, F,4 E,D, | C,2 E,2 D,4- | %90
w: * sci- e-|ba- tis,|||ne- sci-|e- ba- *|||
 D,2 E,2 F,4 | z4 z2 C,2 | C,2 D,2 E,2 E,2 | F,6 E,2 | D,2 C,2 D,4 | C,4 z2 F,2 | F,2 G,2 A,2 A,2 | %97
w: * * tis?|Qui-|a in his quae|Pa- tris|me- i sunt,|_ qui-|a in his quae|
 B,6 A,2 | G,2 F,2 G,4 | F,4 z4 | z8 | z4 z2 G,2 | G,2 F,2 D,2 F,2- | F,2 E,D, C,4- | C,4 G,4 | %105
w: Pa- tris|me- i sunt,|_||o-|por- tet me es-|* * * se?|_ O-|
 G,2 F,2 D,2 F,2- | F,2 E,D, C,D,E,F, | G,3 F, D,2 F,2- | F,E,C,D, E,2 F,2 | C,4 z2 D,2 | %110
w: por- tet me es-||||se, o-|
 D,2 B,,2 D,2 F,2- | F,E,D,C, B,,2 A,,2 | B,,4 F,,4- | F,,8 |] %114
w: por- tet me es-||* se?|_|

